svgs/menus.svg

<svg xmlns="http://www.w3.org/2000/svg" viewBox="0 0 192 192"><path d="M70.817 163.536c-.301-.301-.547-1.686-.547-3.078v-2.531l-3.763-1.288c-12.784-4.377-26.737-14.054-35.107-24.347-7.581-9.324-12.574-19.598-14.815-30.483-.793-3.852-.791-3.948.073-4.579.752-.55 12.447-.645 79.435-.645 70.804 0 78.624.07 79.27.716.894.894.921.489-.392 5.897-5.829 24.017-23.665 43.634-48.124 52.929l-3.853 1.464.123 2.304c.067 1.267-.105 2.728-.382 3.246-.501.935-.7.943-25.938.943-19.173 0-25.567-.135-25.98-.548Zm11.358-26.028c2.681-1.791 3.144-3.353 3.145-10.617.001-6.617.227-7.503 1.916-7.503.451 0 .821-.205.821-.456 0-.266-1.52-.456-3.649-.456-2.006 0-3.648.192-3.648.426 0 .234.564.491 1.254.57l1.254.144v14.911l-1.361 1.084c-2.741 2.184-7.114 1.755-8.513-.835-.32-.591-.637-3.629-.754-7.218-.223-6.843.098-8.17 1.979-8.17.618 0 1.124-.205 1.124-.456 0-.273-1.824-.456-4.561-.456-2.52 0-4.561.191-4.561.426 0 .234.565.491 1.255.57l1.254.144.231 7.323c.256 8.078.548 9.017 3.328 10.712 2.187 1.334 7.393 1.255 9.486-.143Zm15.459.579c0-.25-.491-.456-1.091-.456-1.404 0-1.645-.705-1.645-4.826v-3.383l2.85-.002c3.562-.002 5.49-1.052 6.27-3.413.988-2.996-.098-5.499-3.047-7.018-1.261-.649-12.002-.7-12.002-.057 0 .251.369.456.821.456 1.743 0 1.916.821 1.916 9.122 0 8.3-.173 9.121-1.916 9.121-.452 0-.821.205-.821.456 0 .272 1.748.456 4.333.456 2.584 0 4.332-.184 4.332-.456Zm-2.736-14.138v-4.105h1.398c1.971 0 3.141.75 3.862 2.474 1.203 2.879-.548 5.736-3.515 5.736h-1.745Zm25.981 5.429c2.955-7.103 4.054-9.275 4.879-9.651 1.855-.845 1.165-1.251-2.127-1.251-3.287 0-3.959.357-2.167 1.15.667.296.972.767.87 1.346-.279 1.594-4.781 12.061-5.101 11.862-.664-.409-5.522-12.171-5.284-12.79.138-.361.668-.656 1.178-.656.509 0 .926-.205.926-.456 0-.272-1.748-.456-4.333-.456-2.584 0-4.332.184-4.332.456 0 .251.405.456.901.456 1.231 0 1.676.792 5.971 10.604 2.058 4.703 3.981 8.551 4.273 8.551.292 0 2.248-4.124 4.346-9.165ZM66.916 87.364c1.513-5.83-.067-10.887-5.406-17.302-5.387-6.473-7.272-11.227-7.299-18.412-.022-5.759 1.169-10.652 4.089-16.793 2.578-5.42 3.883-6.684 6.903-6.684 1.771 0 2.38.231 3.385 1.28 1.638 1.709 1.551 2.728-.565 6.609-4.629 8.489-5.601 17.608-2.538 23.809.62 1.254 2.465 3.922 4.1 5.929 6.252 7.672 8.604 15.619 6.777 22.898-.253 1.009-.434 1.045-5.162 1.045h-4.901Zm31.024.897c.208-.815.376-3.124.373-5.131-.005-3.118-.209-4.079-1.406-6.613-.77-1.63-2.409-4.198-3.643-5.706-3.628-4.434-5.154-6.826-6.461-10.119-1.132-2.854-1.229-3.612-1.222-9.487.008-6.004.097-6.643 1.493-10.715 1.599-4.661 4.149-9.595 5.828-11.274 1.529-1.529 4.966-1.469 6.675.116 1.658 1.537 1.592 2.933-.301 6.376-.853 1.552-2.123 4.34-2.823 6.195-1.134 3.011-1.274 3.986-1.299 9.074-.027 5.473.029 5.822 1.404 8.724.788 1.662 2.7 4.532 4.25 6.378 5.234 6.234 7.742 13.084 7.116 19.44-.437 4.438-.154 4.224-5.586 4.224h-4.776Zm30.986 0c.216-.815.393-3.124.394-5.131 0-3.134-.198-4.066-1.408-6.613-.774-1.63-2.773-4.662-4.441-6.736-1.668-2.075-3.033-3.906-3.033-4.069 0-.163-.279-.621-.62-1.017-.341-.396-1.192-2.237-1.889-4.092-1.077-2.861-1.277-4.106-1.318-8.209-.06-5.843.226-7.841 1.797-12.582 1.36-4.1 2.465-6.426 4.385-9.23 1.641-2.396 4.053-3.248 6.408-2.264 3.292 1.376 3.641 3.69 1.166 7.718-.885 1.439-2.198 4.415-2.918 6.613-1.118 3.411-1.306 4.696-1.282 8.784.032 5.629.933 8.448 3.863 12.086 4.498 5.588 5.911 7.716 7.333 11.042 1.408 3.295 1.519 3.917 1.532 8.569.008 2.76-.133 5.376-.314 5.815-.283.69-.988.798-5.187.798h-4.86Zm-8.431-24.635c-.451-.447-.503-.395-.256.255.172.45.427.703.567.562.141-.14 0-.508-.311-.817Z"/></svg>

<svg
    xmlns="http://www.w3.org/2000/svg"
    viewBox="0 0 192 192"
    id="vector">
    <path
        id="path"
        d="M 70.817 163.536 C 70.516 163.235 70.27 161.85 70.27 160.458 L 70.27 157.927 L 66.507 156.639 C 53.723 152.262 39.77 142.585 31.4 132.292 C 23.819 122.968 18.826 112.694 16.585 101.809 C 15.792 97.957 15.794 97.861 16.658 97.23 C 17.41 96.68 29.105 96.585 96.093 96.585 C 166.897 96.585 174.717 96.655 175.363 97.301 C 176.257 98.195 176.284 97.79 174.971 103.198 C 169.142 127.215 151.306 146.832 126.847 156.127 L 122.994 157.591 L 123.117 159.895 C 123.184 161.162 123.012 162.623 122.735 163.141 C 122.234 164.076 122.035 164.084 96.797 164.084 C 77.624 164.084 71.23 163.949 70.817 163.536 Z M 82.175 137.508 C 84.856 135.717 85.319 134.155 85.32 126.891 C 85.321 120.274 85.547 119.388 87.236 119.388 C 87.687 119.388 88.057 119.183 88.057 118.932 C 88.057 118.666 86.537 118.476 84.408 118.476 C 82.402 118.476 80.76 118.668 80.76 118.902 C 80.76 119.136 81.324 119.393 82.014 119.472 L 83.268 119.616 L 83.268 134.527 L 81.907 135.611 C 79.166 137.795 74.793 137.366 73.394 134.776 C 73.074 134.185 72.757 131.147 72.64 127.558 C 72.417 120.715 72.738 119.388 74.619 119.388 C 75.237 119.388 75.743 119.183 75.743 118.932 C 75.743 118.659 73.919 118.476 71.182 118.476 C 68.662 118.476 66.621 118.667 66.621 118.902 C 66.621 119.136 67.186 119.393 67.876 119.472 L 69.13 119.616 L 69.361 126.939 C 69.617 135.017 69.909 135.956 72.689 137.651 C 74.876 138.985 80.082 138.906 82.175 137.508 Z M 97.634 138.087 C 97.634 137.837 97.143 137.631 96.543 137.631 C 95.139 137.631 94.898 136.926 94.898 132.805 L 94.898 129.422 L 97.748 129.42 C 101.31 129.418 103.238 128.368 104.018 126.007 C 105.006 123.011 103.92 120.508 100.971 118.989 C 99.71 118.34 88.969 118.289 88.969 118.932 C 88.969 119.183 89.338 119.388 89.79 119.388 C 91.533 119.388 91.706 120.209 91.706 128.51 C 91.706 136.81 91.533 137.631 89.79 137.631 C 89.338 137.631 88.969 137.836 88.969 138.087 C 88.969 138.359 90.717 138.543 93.302 138.543 C 95.886 138.543 97.634 138.359 97.634 138.087 Z M 94.898 123.949 L 94.898 119.844 L 96.296 119.844 C 98.267 119.844 99.437 120.594 100.158 122.318 C 101.361 125.197 99.61 128.054 96.643 128.054 L 94.898 128.054 Z M 120.879 129.378 C 123.834 122.275 124.933 120.103 125.758 119.727 C 127.613 118.882 126.923 118.476 123.631 118.476 C 120.344 118.476 119.672 118.833 121.464 119.626 C 122.131 119.922 122.436 120.393 122.334 120.972 C 122.055 122.566 117.553 133.033 117.233 132.834 C 116.569 132.425 111.711 120.663 111.949 120.044 C 112.087 119.683 112.617 119.388 113.127 119.388 C 113.636 119.388 114.053 119.183 114.053 118.932 C 114.053 118.66 112.305 118.476 109.72 118.476 C 107.136 118.476 105.388 118.66 105.388 118.932 C 105.388 119.183 105.793 119.388 106.289 119.388 C 107.52 119.388 107.965 120.18 112.26 129.992 C 114.318 134.695 116.241 138.543 116.533 138.543 C 116.825 138.543 118.781 134.419 120.879 129.378 Z M 66.916 87.364 C 68.429 81.534 66.849 76.477 61.51 70.062 C 56.123 63.589 54.238 58.835 54.211 51.65 C 54.189 45.891 55.38 40.998 58.3 34.857 C 60.878 29.437 62.183 28.173 65.203 28.173 C 66.974 28.173 67.583 28.404 68.588 29.453 C 70.226 31.162 70.139 32.181 68.023 36.062 C 63.394 44.551 62.422 53.67 65.485 59.871 C 66.105 61.125 67.95 63.793 69.585 65.8 C 75.837 73.472 78.189 81.419 76.362 88.698 C 76.109 89.707 75.928 89.743 71.2 89.743 L 66.299 89.743 Z M 97.94 88.261 C 98.148 87.446 98.316 85.137 98.313 83.13 C 98.308 80.012 98.104 79.051 96.907 76.517 C 96.137 74.887 94.498 72.319 93.264 70.811 C 89.636 66.377 88.11 63.985 86.803 60.692 C 85.671 57.838 85.574 57.08 85.581 51.205 C 85.589 45.201 85.678 44.562 87.074 40.49 C 88.673 35.829 91.223 30.895 92.902 29.216 C 94.431 27.687 97.868 27.747 99.577 29.332 C 101.235 30.869 101.169 32.265 99.276 35.708 C 98.423 37.26 97.153 40.048 96.453 41.903 C 95.319 44.914 95.179 45.889 95.154 50.977 C 95.127 56.45 95.183 56.799 96.558 59.701 C 97.346 61.363 99.258 64.233 100.808 66.079 C 106.042 72.313 108.55 79.163 107.924 85.519 C 107.487 89.957 107.77 89.743 102.338 89.743 L 97.562 89.743 Z M 128.926 88.261 C 129.142 87.446 129.319 85.137 129.32 83.13 C 129.32 79.996 129.122 79.064 127.912 76.517 C 127.138 74.887 125.139 71.855 123.471 69.781 C 121.803 67.706 120.438 65.875 120.438 65.712 C 120.438 65.549 120.159 65.091 119.818 64.695 C 119.477 64.299 118.626 62.458 117.929 60.603 C 116.852 57.742 116.652 56.497 116.611 52.394 C 116.551 46.551 116.837 44.553 118.408 39.812 C 119.768 35.712 120.873 33.386 122.793 30.582 C 124.434 28.186 126.846 27.334 129.201 28.318 C 132.493 29.694 132.842 32.008 130.367 36.036 C 129.482 37.475 128.169 40.451 127.449 42.649 C 126.331 46.06 126.143 47.345 126.167 51.433 C 126.199 57.062 127.1 59.881 130.03 63.519 C 134.528 69.107 135.941 71.235 137.363 74.561 C 138.771 77.856 138.882 78.478 138.895 83.13 C 138.903 85.89 138.762 88.506 138.581 88.945 C 138.298 89.635 137.593 89.743 133.394 89.743 L 128.534 89.743 Z M 120.495 63.626 C 120.044 63.179 119.992 63.231 120.239 63.881 C 120.411 64.331 120.666 64.584 120.806 64.443 C 120.947 64.303 120.806 63.935 120.495 63.626 Z"
        fill="#000000"
        stroke-width="12"/>
</svg>
